X: 26
T: The Lilting Banshee
R: jig
M: 6/8
L: 1/8
K: Ador
|: A | "Am" EAA EAA | "G"BAB G2A|"Em"Bee edB|"G"dBA GED |
       "Am" EAA EAA | "G"BAB G2A|"Em"Bee edB | "Am"dBA A2:|
|: d | "Am" eaa age | "G"dBA G2A|"Em" Bee edB|"D"def gfg|
%%staves (1 *2)
[V:1] "Am" aba xxx | "G" dBA G2A | "Em" Bee edB | "Am"dBA A2 :|
[V:2] eaa age




